!!!OTL: 2068. Maria als Spinnerin.
!!!ARE: Europa, Mitteleuropa, Deutschland, Westfalen, Eichsfeld
!!!SCT: E2068
!!!TXL: @@NDS
!!!YEM: Copyright 1995, estate of Helmut Schaffrath.
**kern	**text
*ICvox	*
*M3/8	*
*k[b-e-]	*
*g:	*
!LO:TX:a:t=Mündlich vom Eichsfelde von Haxthauſen. 1850. S. 177 (weſtfäl. Dialekt).	!
{8d	Ma-
=1	=1
8g	-ri-
8g	-a
8g	wol
=2	=2
4g	an
8a	dem
=3	=3
4b-/	Ra-
8a	-e
=4	=4
4g}	ſatt,
{16b-L	ſe
16ccJ	.
=5	=5
8.dd	ſpann
16dd	es
16dd	Gott
16dd	dem
=6	=6
8.dd	He-
16dd	-ren
(16cc	e-
16b-)	-nen
=7	=7
4.a	Rock.
=8	=8
4r}	.
{8dd	Se
=9	=9
8a	knei-
8b-	-de
8cc	wol
=10	=10
8dd	för
8cc	dem
8dd	Al-
=11	=11
16cc/L	-ta-
16b-J	.
4a	-re,
=12	=12
4r}	.
{8dd	ſe
=13	=13
8dd	deen-
8g	-de
8g	dem
=14	=14
8ccL	le-
8b-J	.
8a	-den
=15	=15
4g.	Gott.
=16	=16
4r}	.
==	==
!!!AGN: geistlich, Marien - Lied, Legende
!!!ONB: ESAC (Essen Associative Code) Database: ERK3
!!!AMT: simple triple
!!!AIN: vox
!!!EED: Helmut Schaffrath
!!!EEV: 1.0
!!!GTL: 4. Katholische Lieder: b) Marienlieder (Rufe und Legenden.)
!!!URL-scan: https://rosdok.uni-rostock.de/mcrviewer/recordIdentifier/rosdok_ppn745177999/iview2/phys_0766.iview2?x=188.96815741118007&y=311.0309064681642&scale=0.7014306698522891&rotation=0&layout=singlePageLayout
!!!ENC: Anna Maria Matuszewska
!!!EEV: 2025/14/01
*-	*-
